X:63
T:Buffalo Gals
C:Aubrey Haynie
N:Transcribed by Mike Stangeland
R:bluegrass
L:1/8
Q:1/4=240
M:4/4
K:A
[AA][eA] |: "A"A2 [e2B2] [e2c2] [e2e2] | [fA][eA] [eA]a =c^c c2 | "E"ef ec B2 c{c}e | "A"ef e2 B=c ^ce |
| A2 [e2B2] [e2c2] e2 | [fA][eA] [eA]a =c^c c2 | "E"ef ec BA F2 | |1 [AF]"A"[AA] [AA][AB] [A2A2] [AA][eA] :|2 [AF]"A"[AA] [AA][AB] [A2A2] fg |]
| "A"ae g2 (3fgf eg | fa ed c2 c{c}e | "E"ef ec B2 c{c}e | "A"ef ed ce fg | 
|ae g2 (3fgf eg | fa ed c2 c{c}e | "E"ef ec BA FF | "A"[AA][eA] [eA][eB] [e2A2] fg |
| ae g2 (3fgf eg | fa ed c2 c{c}e | "E"ef ec B2 a2 | "A"ze fe B=c ^ce | 
|ae g2 (3fgf eg | fa ed c2 c{c}e | "E"ef ed cE FE | "A"[AA][eA] [eA][eB] [e4A4] || 

